X:1
T:Flensburg, CMD
T:Flensburg, CMD
T:Ludwig Spohr, harm. by Joseph Barnby, 1867
T:Public Domain Courtesy of the Cyber Hymnal™
C:Ludwig Spohr, harm. by Joseph Barnby, 1867
Z:Public Domain
Z:Courtesy of the Cyber Hymnal™
%%score ( 1 2 ) ( 3 4 )
L:1/8
Q:1/4=113
M:4/4
K:Eb
V:1 treble 
V:2 treble 
V:3 bass 
V:4 bass 
V:1
 [GB]2 | [EG]2 [EB]2 E2 [Ge]2 | e2 [Ac] [FB]2 [FA]2 x | [EG]2 [EA]2 [EB]2 [Ec]2 | F6 [FB]2 | %5
 G2 [FB]2 E2 [Ge]2 | [Ff]3 [Fe] [Fd]2 ([Ee][Fd]) | [Gc]2 [Fd]2 [Ee]2 [Ef]2 | [DB]6 (BA) | %9
 [EG]2 [DB]2 [Ee]2 [GB]2 | [FB]2 (AG) [FA]2 [DB]2 | [EG]2 (GF) [CE]2 [EF]2 | G6 [=EG]2 | %13
 [FA]2 F2 [FB]2 [Fe]2 | e2 [Ec] [FB]2 [DA]2 x | [EG]2 [Ec]2 [EF]2 [DB]2 | E6 |] %17
V:2
 x2 | x4 E2 x2 | A3 d x4 | x8 | (E2 DC D2) x2 | G2 E2 x4 | x8 | x8 | x6 F2 | x8 | x2 F2 x4 | %11
 x2 D2 x4 | (=E2 DC D2) x2 | x2 F2 x4 | F3 d x4 | x8 | E6 |] %17
V:3
 [E,B,]2 | [E,B,]2 [E,G,]2 [G,B,]2 [G,B,]2 | [F,B,]3 [F,C] [B,,D]2 [B,,D]2 | %3
 [E,B,]2 [C,A,]2 [G,,G,]2 [A,,C]2 | [B,,B,]6 [D,B,]2 | [E,B,]2 [D,B,]2 [C,G,]2 [B,,C]2 | %6
 [=A,,C]2 [=A,C]2 [B,D]2 B,2 | [E,B,]2 [D,B,]2 [C,B,]2 [F,,=A,]2 | [B,,B,]6 [D,B,]2 | %9
 [E,B,]2 [F,A,]2 [G,B,]2 [E,E]2 | [F,C]2 [E,C]2 [D,B,]2 [B,,B,]2 | %11
 [E,B,]2 [=B,,G,]2 [C,G,]2 [A,,C]2 | (C2 =B,=A, B,2) [C,C]2 | [F,C]2 A,2 [D,B,]2 [C,=A,]2 | %14
 [B,,A,]3 [C,A,] [D,F,]2 [B,,F,]2 | [C,E,]2 [=A,,_G,]2 (F,=G,) [B,,_A,]2 | [E,G,]6 |] %17
V:4
 x2 | x8 | x8 | x8 | x8 | x8 | x6 (G,F,) | x8 | x8 | x8 | x8 | x8 | G,,6 x2 | x2 (F,E,) x4 | x8 | %15
 x4 B,,2 x2 | x6 |] %17

